src/assets/images/big-rabbit.svg

<svg width="119" height="133" viewBox="0 0 119 133" fill="none" xmlns="http://www.w3.org/2000/svg">
<path opacity="0.908" fill-rule="evenodd" clip-rule="evenodd" d="M43.0658 3.74955C45.0836 3.82903 46.9567 4.37141 48.6852 5.37643C51.6594 8.14949 53.5864 11.54 54.4659 15.5476C55.6714 20.3412 55.7404 25.1391 54.6729 29.9418C56.7002 31.3102 58.4593 32.9732 59.9506 34.9304C65.0262 37.5666 67.2073 41.763 66.4936 47.5198C66.1501 48.8963 65.7986 50.2681 65.4392 51.6354C73.7405 52.1076 81.343 54.6572 88.2464 59.2841C88.7839 59.8522 89.3608 60.3781 89.9768 60.8618C97.2747 60.4703 99.3195 63.593 96.1117 70.2296C93.6002 73.6647 90.2153 75.5519 85.957 75.8908C84.7587 75.42 83.568 74.9311 82.3851 74.4244C82.2547 74.4875 82.1242 74.5509 81.9938 74.614C82.6618 76.9746 83.0602 79.3833 83.189 81.8398C83.4498 82.698 84.0431 83.1047 84.9688 83.0592C86.1152 83.1242 87.2578 83.0786 88.3964 82.923C94.6455 80.8122 99.6964 82.4421 103.549 87.812C107.555 93.8332 107.727 99.9441 104.065 106.145C102.733 107.648 101.043 108.429 98.9941 108.489C93.5528 108.226 89.5607 105.688 87.0176 100.873C84.7666 101.951 82.3869 102.434 79.8782 102.323C78.2656 107.742 75.9767 112.865 73.0118 117.69C72.2665 121.1 70.277 123.463 67.0428 124.781C59.5243 127.461 52.5151 126.495 46.0156 121.882C42.4534 118.599 41.7981 114.816 44.0497 110.532C45.8072 108.129 48.1648 106.627 51.1229 106.029C52.2847 105.799 53.4493 105.594 54.6164 105.415C55.1654 103.674 55.6514 101.914 56.0744 100.137C55.2432 99.0488 54.2381 98.0987 53.0586 97.2867C52.1732 96.3052 51.2931 95.3316 50.4176 94.3661C47.9406 98.9162 44.1025 101.147 38.9035 101.057C37.3659 100.681 36.049 99.9313 34.9526 98.8082C33.5898 94.5217 34.6182 90.8894 38.0375 87.9114C36.6403 83.616 36.272 79.2231 36.9325 74.7325C37.3456 72.433 37.9773 70.207 38.8271 68.0543C34.207 67.7461 30.5471 65.74 27.8476 62.0362C27.2498 60.8318 26.8571 59.5602 26.6691 58.2214C24.3611 58.7864 22.0528 58.7521 19.7439 58.1189C17.4054 57.4484 16.4824 55.9006 16.9751 53.4762C17.6166 50.8223 18.9415 48.5701 20.9502 46.7196C22.2553 45.6928 23.5696 44.6973 24.8925 43.7326C17.377 37.5653 13.6083 29.5787 13.5863 19.7732C14.6554 14.1893 17.7972 12.5933 23.0119 14.9854C26.3917 16.9726 29.0656 19.6544 31.0335 23.0306C33.1307 26.5856 34.5933 30.3989 35.4218 34.4707C36.5274 33.9699 37.7139 33.6058 38.9812 33.3788C35.3791 26.2092 34.5862 18.714 36.6025 10.8936C37.3008 8.44248 38.5984 6.38933 40.4952 4.73434C41.346 4.333 42.2028 4.00481 43.0658 3.74955Z" fill="#040404"/>
<path fill-rule="evenodd" clip-rule="evenodd" d="M43.2473 5.96588C44.8099 5.98602 46.2052 6.46228 47.433 7.39512C49.9846 9.91829 51.6368 12.9462 52.3897 16.4787C53.5996 20.9754 53.5134 25.4274 52.1311 29.8348C51.2109 30.0325 50.291 30.2305 49.3709 30.4283C45.9475 26.0357 44.5246 21.0511 45.1018 15.474C45.1965 14.04 45.6222 12.7189 46.3787 11.5108C46.3395 10.6593 45.9 10.3148 45.0603 10.4768C44.424 10.8644 43.9832 11.4123 43.738 12.1207C41.9956 18.9908 43.1977 25.2843 47.3441 31.001C45.5469 31.6099 43.759 32.2156 41.9803 32.8182C40.3221 30.8565 39.2138 28.5934 38.6552 26.0292C37.0791 20.4452 37.3478 14.9634 39.4615 9.58325C40.3306 7.92244 41.5926 6.71657 43.2473 5.96588Z" fill="#F9C0FA"/>
<path fill-rule="evenodd" clip-rule="evenodd" d="M18.9747 16.0115C21.2113 16.5348 23.1779 17.5771 24.8743 19.1379C29.4243 23.8733 32.2604 29.4992 33.3827 36.0158C33.4762 36.5156 33.4103 36.9935 33.185 37.4494C31.0089 38.7414 29.0496 40.2974 27.3066 42.1175C26.2779 41.8505 25.377 41.3204 24.6039 40.5275C19.8554 35.7628 16.9505 30.0463 15.8895 23.3778C15.6952 21.3186 15.9697 19.3274 16.7131 17.4041C17.3574 16.7167 18.1112 16.2523 18.9747 16.0115Z" fill="#F9C0FA"/>
<path fill-rule="evenodd" clip-rule="evenodd" d="M20.8041 20.4029C22.1795 20.6456 22.4845 21.3774 21.7189 22.5986C22.6421 28.7101 25.3849 33.8362 29.947 37.9769C30.0716 38.53 29.8918 38.9515 29.4074 39.2417C28.6917 39.2774 28.0764 39.0302 27.5617 38.5003C23.7554 34.4988 21.1967 29.804 19.8857 24.4155C19.4904 22.8855 19.7965 21.5479 20.8041 20.4029Z" fill="#0B080B"/>
<path fill-rule="evenodd" clip-rule="evenodd" d="M52.3454 31.8123C54.1837 32.2434 55.6724 33.2195 56.8114 34.7411C51.7267 34.8377 46.808 35.7827 42.0548 37.5765C39.7246 37.6628 37.4698 38.1228 35.2903 38.957C35.2217 38.8665 35.1529 38.7757 35.0843 38.6851C40.4894 35.5167 46.2433 33.2257 52.3454 31.8123Z" fill="#A9F59F"/>
<path fill-rule="evenodd" clip-rule="evenodd" d="M57.2812 36.6321C61.9214 37.813 64.3069 40.8202 64.4377 45.6537C63.7921 50.9219 61.4826 55.3108 57.5093 58.8208C52.6212 63.1912 46.902 65.5274 40.3512 65.8296C34.9219 66.0526 31.1468 63.706 29.0257 58.7898C28.373 53.1635 30.1577 48.4587 34.3803 44.6753C41.0936 39.3829 48.7272 36.7016 57.2812 36.6321Z" fill="#FBC2FC"/>
<path fill-rule="evenodd" clip-rule="evenodd" d="M35.2658 40.9016C35.4467 40.8947 35.6006 40.9565 35.7272 41.087C30.5101 44.7264 27.4703 49.7047 26.6072 56.0215C18.3661 57.3471 16.9612 54.8809 22.3923 48.6229C26.2578 45.2989 30.5489 42.7252 35.2658 40.9016Z" fill="#47CA33"/>
<path fill-rule="evenodd" clip-rule="evenodd" d="M45.1452 45.1854C46.6373 45.4944 46.9421 46.2262 46.0599 47.3812C45.5068 47.5058 45.0853 47.3259 44.7951 46.8416C44.7072 46.238 44.8237 45.686 45.1452 45.1854Z" fill="#130F13"/>
<path fill-rule="evenodd" clip-rule="evenodd" d="M66.1315 53.6788C73.2319 54.485 79.8208 56.7325 85.8983 60.4213C86.8348 61.2809 87.7716 62.1405 88.7081 63.0001C89.913 62.9977 91.1352 62.9633 92.3747 62.8968C94.4132 63.0254 95.4018 64.095 95.3411 66.1058C94.0188 70.1763 91.245 72.6347 87.0198 73.4807C86.3606 73.5522 85.7235 73.4644 85.1082 73.2172C80.3074 71.2782 75.4996 69.3574 70.6847 67.4547C69.5095 67.5817 69.2278 68.1516 69.8403 69.1645C72.8912 70.4076 75.9221 71.6776 78.9328 72.9746C80.4895 76.4711 81.201 80.1404 81.0676 83.9823C80.6813 92.2557 78.8555 100.201 75.59 107.819C73.4092 112.063 71.2808 116.315 69.2054 120.574C66.4969 122.791 63.3755 123.943 59.8415 124.031C54.9673 124.267 50.7075 122.787 47.0619 119.591C44.4216 116.659 44.3844 113.691 46.95 110.689C47.9161 109.963 48.9363 109.333 50.0108 108.797C52.2173 108.101 54.4435 107.556 56.6888 107.161C57.8662 102.053 58.8987 96.9192 59.7857 91.7618C59.2152 91.3223 58.6467 91.3252 58.0802 91.7701C57.6164 93.5676 57.2444 95.3829 56.9641 97.2164C55.476 96.3412 54.1686 95.2277 53.0419 93.8756C48.3117 88.1003 45.6528 81.4842 45.0648 74.0275C44.5476 73.7716 44.0243 73.7401 43.4951 73.9328C43.2703 76.6109 43.5562 79.2475 44.3526 81.8426C44.9048 83.6039 45.5614 85.3175 46.3222 86.9838C47.3195 88.5876 48.1861 90.2491 48.9221 91.9685C47.268 96.3611 44.1179 98.6052 39.4719 98.7008C37.9102 98.6126 36.9228 97.8271 36.5097 96.3445C36.4302 93.1553 37.7374 90.7383 40.4311 89.0935C40.6564 88.6376 40.7223 88.1597 40.6288 87.6599C39.6831 85.9305 39.1283 84.0683 38.964 82.0737C38.8857 78.3517 39.2314 74.6659 40.0014 71.0163C40.3408 69.9355 40.7679 68.8987 41.2824 67.9058C50.9957 66.858 58.5288 62.2557 63.8822 54.0991C64.6289 53.8483 65.3787 53.7082 66.1315 53.6788Z" fill="#FCC2FD"/>
<path fill-rule="evenodd" clip-rule="evenodd" d="M35.4147 50.4182C36.9807 50.5459 37.2967 51.1982 36.3624 52.375C34.9836 52.2825 34.6679 51.6303 35.4147 50.4182Z" fill="#191519"/>
<path fill-rule="evenodd" clip-rule="evenodd" d="M42.5831 51.4063C43.061 51.414 43.4883 51.554 43.8644 51.8265C43.9204 52.4921 43.7927 53.1236 43.4814 53.7215C43.7445 54.7218 44.1416 55.6691 44.6722 56.5641C44.8415 57.8986 44.3484 58.2362 43.1933 57.5776C42.7219 56.6258 42.1999 55.7017 41.6276 54.8052C40.1307 54.7624 39.6556 54.0882 40.2021 52.7825C41.0482 52.3849 41.8419 51.9263 42.5831 51.4063Z" fill="#0B080B"/>
<path fill-rule="evenodd" clip-rule="evenodd" d="M93.1259 83.9403C95.799 84.2255 98.0841 85.3116 99.9813 87.1985C104.202 91.652 105.398 96.8084 103.571 102.668C101.777 105.953 99.076 107.001 95.4674 105.812C92.4146 104.308 90.1747 102.011 88.7477 98.9198C88.5343 98.495 88.2088 98.2066 87.7712 98.0547C86.7148 98.4608 85.6766 98.9264 84.6569 99.4515C83.3324 99.7895 81.9978 100.052 80.6526 100.239C80.6059 99.9888 80.5591 99.7388 80.5124 99.4889C81.8913 94.745 82.7204 89.9085 82.9997 84.9791C86.4926 85.5223 89.8681 85.1758 93.1259 83.9403Z" fill="#FBC1FC"/>
</svg>

<svg width="119" height="133" fill="none" xmlns="http://www.w3.org/2000/svg"><path opacity=".908" fill-rule="evenodd" clip-rule="evenodd" d="M43.066 3.75c2.018.079 3.89.621 5.62 1.626 2.973 2.773 4.9 6.164 5.78 10.172 1.205 4.793 1.274 9.591.207 14.394a22.232 22.232 0 0 1 5.278 4.988c5.075 2.637 7.256 6.833 6.543 12.59a340.199 340.199 0 0 1-1.055 4.115c8.302.473 15.904 3.022 22.807 7.65a15.88 15.88 0 0 0 1.73 1.577c7.299-.392 9.344 2.731 6.136 9.368-2.512 3.435-5.897 5.322-10.155 5.66a127.24 127.24 0 0 1-3.572-1.466l-.391.19a32.753 32.753 0 0 1 1.195 7.226c.26.858.854 1.265 1.78 1.22a17.81 17.81 0 0 0 3.427-.137c6.25-2.11 11.3-.48 15.153 4.889 4.006 6.021 4.178 12.132.516 18.333-1.332 1.503-3.022 2.284-5.07 2.344-5.442-.263-9.434-2.801-11.977-7.616a14.77 14.77 0 0 1-7.14 1.45 64.212 64.212 0 0 1-6.866 15.367c-.746 3.41-2.735 5.773-5.97 7.091-7.518 2.68-14.527 1.714-21.026-2.899-3.563-3.283-4.218-7.066-1.966-11.35 1.757-2.403 4.115-3.905 7.073-4.503a82.005 82.005 0 0 1 3.493-.614 76.296 76.296 0 0 0 1.458-5.278 13.126 13.126 0 0 0-3.015-2.85c-.886-.982-1.766-1.955-2.641-2.92-2.477 4.55-6.316 6.78-11.514 6.69a8.103 8.103 0 0 1-3.951-2.249c-1.363-4.286-.335-7.919 3.084-10.897-1.397-4.295-1.765-8.688-1.105-13.178a34.99 34.99 0 0 1 1.895-6.679c-4.62-.308-8.28-2.314-10.98-6.018a12.404 12.404 0 0 1-1.178-3.815 13.57 13.57 0 0 1-6.925-.102c-2.339-.67-3.262-2.218-2.769-4.643.642-2.654 1.966-4.906 3.975-6.756a135.364 135.364 0 0 1 3.942-2.987c-7.515-6.168-11.284-14.154-11.306-23.96 1.07-5.584 4.211-7.18 9.426-4.788 3.38 1.988 6.054 4.67 8.021 8.046a36.795 36.795 0 0 1 4.389 11.44c1.105-.501 2.292-.865 3.56-1.092-3.603-7.17-4.396-14.665-2.38-22.485.699-2.452 1.996-4.505 3.893-6.16.851-.401 1.708-.73 2.57-.984Z" fill="#040404"/><path fill-rule="evenodd" clip-rule="evenodd" d="M43.247 5.966c1.563.02 2.958.496 4.186 1.43 2.552 2.522 4.204 5.55 4.957 9.083 1.21 4.496 1.123 8.948-.259 13.356l-2.76.593c-3.424-4.392-4.846-9.377-4.27-14.954a8.397 8.397 0 0 1 1.278-3.963c-.04-.852-.479-1.196-1.319-1.034a3.028 3.028 0 0 0-1.322 1.644c-1.742 6.87-.54 13.163 3.606 18.88l-5.364 1.817c-1.658-1.961-2.766-4.225-3.325-6.789-1.576-5.584-1.307-11.066.806-16.446.87-1.66 2.132-2.866 3.786-3.617ZM18.975 16.012a12.924 12.924 0 0 1 5.9 3.126c4.55 4.735 7.385 10.361 8.508 16.878.093.5.027.977-.198 1.433a27.632 27.632 0 0 0-5.878 4.669c-1.03-.268-1.93-.798-2.703-1.59-4.749-4.765-7.653-10.482-8.714-17.15-.195-2.06.08-4.05.823-5.974.644-.687 1.398-1.152 2.262-1.392Z" fill="#F9C0FA"/><path fill-rule="evenodd" clip-rule="evenodd" d="M20.804 20.403c1.376.243 1.68.974.915 2.196.923 6.111 3.666 11.237 8.228 15.378.125.553-.055.975-.54 1.265-.715.035-1.33-.212-1.845-.742-3.807-4.001-6.365-8.696-7.676-14.084-.396-1.53-.09-2.868.918-4.013Z" fill="#0B080B"/><path fill-rule="evenodd" clip-rule="evenodd" d="M52.345 31.812c1.839.431 3.327 1.407 4.466 2.93a43.849 43.849 0 0 0-14.756 2.835c-2.33.086-4.585.546-6.765 1.38l-.206-.272a61.286 61.286 0 0 1 17.261-6.873Z" fill="#A9F59F"/><path fill-rule="evenodd" clip-rule="evenodd" d="M57.281 36.632c4.64 1.181 7.026 4.188 7.157 9.022-.646 5.268-2.955 9.657-6.929 13.167-4.888 4.37-10.607 6.706-17.158 7.009-5.43.223-9.204-2.124-11.325-7.04-.653-5.627 1.132-10.331 5.354-14.115 6.714-5.292 14.347-7.973 22.901-8.043Z" fill="#FBC2FC"/><path fill-rule="evenodd" clip-rule="evenodd" d="M35.266 40.902a.586.586 0 0 1 .461.185c-5.217 3.64-8.257 8.618-9.12 14.934-8.24 1.326-9.646-1.14-4.215-7.398a43.878 43.878 0 0 1 12.874-7.721Z" fill="#47CA33"/><path fill-rule="evenodd" clip-rule="evenodd" d="M45.145 45.185c1.492.31 1.797 1.041.915 2.196-.553.125-.975-.055-1.265-.54a2.343 2.343 0 0 1 .35-1.656Z" fill="#130F13"/><path fill-rule="evenodd" clip-rule="evenodd" d="M66.132 53.679c7.1.806 13.689 3.053 19.766 6.742l2.81 2.58a71.083 71.083 0 0 0 3.667-.104c2.038.128 3.027 1.198 2.966 3.209-1.322 4.07-4.096 6.529-8.321 7.375a3.919 3.919 0 0 1-1.912-.264c-4.8-1.939-9.608-3.86-14.423-5.762-1.175.127-1.457.697-.845 1.71a496.527 496.527 0 0 1 9.093 3.81 24.62 24.62 0 0 1 2.135 11.007 68.08 68.08 0 0 1-5.478 23.837 671.707 671.707 0 0 0-6.385 12.755c-2.708 2.217-5.83 3.369-9.363 3.457-4.875.236-9.134-1.244-12.78-4.44-2.64-2.932-2.678-5.9-.112-8.902a19.784 19.784 0 0 1 3.06-1.892 52.304 52.304 0 0 1 6.679-1.636 279.372 279.372 0 0 0 3.097-15.4c-.57-.439-1.14-.436-1.706.01a55.132 55.132 0 0 0-1.116 5.445 14.923 14.923 0 0 1-3.922-3.34c-4.73-5.776-7.39-12.392-7.977-19.849a1.922 1.922 0 0 0-1.57-.094 20.793 20.793 0 0 0 .858 7.91 44.206 44.206 0 0 0 1.97 5.14 37.002 37.002 0 0 1 2.6 4.986c-1.655 4.392-4.805 6.636-9.451 6.732-1.562-.088-2.55-.874-2.962-2.356-.08-3.19 1.227-5.607 3.921-7.251a2.23 2.23 0 0 0 .198-1.434 13.89 13.89 0 0 1-1.665-5.586 48.452 48.452 0 0 1 1.037-11.058c.34-1.08.767-2.117 1.281-3.11 9.714-1.048 17.247-5.65 22.6-13.807a8.019 8.019 0 0 1 2.25-.42Z" fill="#FCC2FD"/><path fill-rule="evenodd" clip-rule="evenodd" d="M35.415 50.418c1.566.128 1.882.78.947 1.957-1.378-.093-1.694-.745-.947-1.957Z" fill="#191519"/><path fill-rule="evenodd" clip-rule="evenodd" d="M42.583 51.406c.478.008.905.148 1.281.42a3.406 3.406 0 0 1-.383 1.895c.264 1 .66 1.948 1.191 2.843.17 1.335-.324 1.672-1.479 1.014a29.393 29.393 0 0 0-1.565-2.773c-1.497-.043-1.972-.717-1.426-2.023.846-.397 1.64-.856 2.381-1.376Z" fill="#0B080B"/><path fill-rule="evenodd" clip-rule="evenodd" d="M93.126 83.94c2.673.285 4.958 1.372 6.855 3.258 4.221 4.454 5.417 9.61 3.59 15.47-1.794 3.285-4.495 4.333-8.104 3.144-3.052-1.504-5.292-3.801-6.72-6.892a1.673 1.673 0 0 0-.976-.865 31.442 31.442 0 0 0-3.114 1.396c-1.325.339-2.66.601-4.004.788l-.14-.75A64.99 64.99 0 0 0 83 84.979c3.493.543 6.868.197 10.126-1.039Z" fill="#FBC1FC"/></svg>
